icons/plexis/48/google-play-books.svg

<svg viewBox="0 0 48 48" xmlns="http://www.w3.org/2000/svg" xmlns:xlink="http://www.w3.org/1999/xlink">
  <linearGradient id="a" gradientTransform="matrix(0 -1 1 0 -.0000015 47.999998)" gradientUnits="userSpaceOnUse" x1="1" x2="47">
    <stop offset="0" stop-color="#ede9ce"/>
    <stop offset="1" stop-color="#f3f0dd"/>
  </linearGradient>
  <path d="m47 24c0 22.703-.297 23-23 23-22.703 0-23-.297-23-23 0-22.703.297-23 23-23 22.703 0 23 .297 23 23z" fill="url(#a)"/>
  <g transform="matrix(3.543307 0 0 3.543307 .0023625 -.00000012)">
    <path d="m13 13v18l10 6h4l10-6v-18c-4 0-8 1.02-12 4.5-4-3.395-8-4.5-12-4.5z" opacity=".1" transform="scale(.28222223)"/>
    <path d="m7.338 10.16v-5.08h-1.129v5.08" fill="#14a6db"/>
    <path d="m6.209 5.08l-2.822-1.693v5.08l2.822 1.693" fill="#237bba"/>
    <path d="m10.16 8.467v-5.08l-2.822 1.693v5.08" fill="#63c5e7"/>
    <path d="m10.16 3.387c-1.129 0-2.258.288-3.387 1.27-1.129-.958-2.258-1.27-3.387-1.27l2.822 1.693h1.129" fill="#0a5168"/>
    <path d="m29 16v5l3-3v-4h-3z" fill="#0a5168" transform="scale(.28222223)"/>
  </g>
</svg>

<svg xmlns="http://www.w3.org/2000/svg" viewBox="0 0 48 48">
 <defs>
  <linearGradient id="linearGradient3764" x1="1" x2="47" gradientUnits="userSpaceOnUse" gradientTransform="matrix(0,-1,1,0,-1.5e-6,47.999998)">
   <stop style="stop-color:#ede9ce;stop-opacity:1"/>
   <stop offset="1" style="stop-color:#f3f0dd;stop-opacity:1"/>
  </linearGradient>
 </defs>
 <g>
  
  
  
 </g>
 <g>
  <path d="m 47,24 C 47,46.703 46.703,47 24,47 1.297,47 1,46.703 1,24 1,1.297 1.297,1 24,1 46.703,1 47,1.297 47,24 z" style="fill:url(#linearGradient3764);fill-opacity:1"/>
 </g>
 <g>
  
 </g>
 <g transform="matrix(3.543307,0,0,3.543307,0.0023625,-1.1524058e-7)">
  <g transform="translate(0.28222228,0.28222248)" style="fill:#000;opacity:0.1;fill-opacity:1">
   <path d="m 13,13 0,18 10,6 4,0 10,-6 0,-18 C 33,13 29,14.02 25,17.5 21,14.105 17,13 13,13 Z" transform="matrix(0.28222223,0,0,0.28222223,-0.28222228,-0.28222248)" style="stroke:none;fill-rule:nonzero"/>
  </g>
  <g>
   <path d="m 7.338 10.16 0 -5.08 -1.129 0 0 5.08" style="fill:#14a6db;fill-opacity:1;stroke:none;fill-rule:nonzero"/>
   <path d="m 6.209 5.08 -2.822 -1.693 0 5.08 2.822 1.693" style="fill:#237bba;fill-opacity:1;stroke:none;fill-rule:nonzero"/>
   <path d="m 10.16 8.467 0 -5.08 -2.822 1.693 0 5.08" style="fill:#63c5e7;fill-opacity:1;stroke:none;fill-rule:nonzero"/>
   <path d="M 10.16,3.387 C 9.031,3.387 7.902,3.675 6.773,4.657 5.644,3.699 4.515,3.387 3.386,3.387 l 2.822,1.693 1.129,0" style="fill:#0a5168;fill-opacity:1;stroke:none;fill-rule:nonzero"/>
   <path transform="scale(0.28222223,0.28222223)" d="m 29 16 0 5 3 -3 0 -4 -3 0 z" style="fill:#0a5168;fill-opacity:1;stroke:none"/>
  </g>
 </g>
</svg>
